swiss/communes/0578.svg

<?xml version="1.0" encoding="UTF-8" standalone="no"?>
<svg
   xmlns:dc="http://purl.org/dc/elements/1.1/"
   xmlns:cc="http://web.resource.org/cc/"
   xmlns:rdf="http://www.w3.org/1999/02/22-rdf-syntax-ns#"
   xmlns:svg="http://www.w3.org/2000/svg"
   xmlns="http://www.w3.org/2000/svg"
   xmlns:xlink="http://www.w3.org/1999/xlink"
   xmlns:sodipodi="http://sodipodi.sourceforge.net/DTD/sodipodi-0.dtd"
   xmlns:inkscape="http://www.inkscape.org/namespaces/inkscape"
   height="763"
   width="603"
   version="1.0"
   id="svg20"
   sodipodi:version="0.32"
   inkscape:version="0.44.1"
   sodipodi:docname="Güdlischwand-coat of arms.svg"
   sodipodi:docbase="F:\Mis Documentos\Mis imágenes\Encyclopédie\Escudos de Suiza">
  <metadata
     id="metadata31">
    <rdf:RDF>
      <cc:Work
         rdf:about="">
        <dc:format>image/svg+xml</dc:format>
        <dc:type
           rdf:resource="http://purl.org/dc/dcmitype/StillImage" />
        <dc:date>07-AUG-2006</dc:date>
        <dc:creator>
          <cc:Agent>
            <dc:title>Jérôme BLUM (wagner51)</dc:title>
          </cc:Agent>
        </dc:creator>
        <cc:license
           rdf:resource="http://creativecommons.org/licenses/GPL/2.0/" />
        <dc:coverage />
        <dc:description>Gabarit pour le Projet:Blasons de WIkipédia</dc:description>
        <dc:subject>
          <rdf:Bag>
            <rdf:li>blason suisse modèle gabarit projet blasons</rdf:li>
          </rdf:Bag>
        </dc:subject>
        <dc:language>fr</dc:language>
        <dc:title>Gabrit d'un blason suisse</dc:title>
      </cc:Work>
      <cc:License
         rdf:about="http://creativecommons.org/licenses/GPL/2.0/">
        <cc:permits
           rdf:resource="http://web.resource.org/cc/Reproduction" />
        <cc:permits
           rdf:resource="http://web.resource.org/cc/Distribution" />
        <cc:requires
           rdf:resource="http://web.resource.org/cc/Notice" />
        <cc:permits
           rdf:resource="http://web.resource.org/cc/DerivativeWorks" />
        <cc:requires
           rdf:resource="http://web.resource.org/cc/ShareAlike" />
        <cc:requires
           rdf:resource="http://web.resource.org/cc/SourceCode" />
      </cc:License>
    </rdf:RDF>
  </metadata>
  <defs
     id="defs29">
    <linearGradient
       id="linearGradient2893">
      <stop
         style="stop-color:#ffffff;stop-opacity:0.3137255;"
         offset="0"
         id="stop2895" />
      <stop
         id="stop2897"
         offset="0.19"
         style="stop-color:#ffffff;stop-opacity:0.25098041;" />
      <stop
         style="stop-color:#6b6b6b;stop-opacity:0.1254902;"
         offset="0.60000002"
         id="stop2901" />
      <stop
         style="stop-color:#000000;stop-opacity:0.1254902;"
         offset="1"
         id="stop2899" />
    </linearGradient>
    <linearGradient
       id="linearGradient2955">
      <stop
         style="stop-color:white;stop-opacity:0;"
         offset="0"
         id="stop2965" />
      <stop
         style="stop-color:black;stop-opacity:0.64583331;"
         offset="1"
         id="stop2959" />
    </linearGradient>
    <radialGradient
       inkscape:collect="always"
       xlink:href="#linearGradient2893"
       id="radialGradient3236"
       gradientUnits="userSpaceOnUse"
       gradientTransform="matrix(1.215027,1.531577e-24,1.464684e-23,1.266667,-839.1924,-490.4894)"
       cx="858.04236"
       cy="579.93323"
       fx="858.04236"
       fy="579.93323"
       r="300" />
  </defs>
  <sodipodi:namedview
     inkscape:window-height="682"
     inkscape:window-width="1024"
     inkscape:pageshadow="2"
     inkscape:pageopacity="0.0"
     guidetolerance="10.0"
     gridtolerance="10.0"
     objecttolerance="10.0"
     borderopacity="1.0"
     bordercolor="#666666"
     pagecolor="#ffffff"
     id="base"
     inkscape:zoom="0.48301887"
     inkscape:cx="379.6301"
     inkscape:cy="455.43946"
     inkscape:window-x="-4"
     inkscape:window-y="-4"
     inkscape:current-layer="layer2"
     showgrid="true"
     showguides="true"
     inkscape:guide-bbox="true" />
  <desc
     id="desc22">Coat of Arms of Canton of Freiburg (Fribourg)</desc>
  <g
     inkscape:groupmode="layer"
     id="layer1"
     inkscape:label="Fond écu"
     style="display:inline"
     sodipodi:insensitive="true">
    <path
       id="path1899"
       d="M 1.5,1.49998 L 1.5,460.3679 C 1.5,626.6785 135.81456,761.5 301.49999,761.5 C 467.18543,761.5 601.5,626.6785 601.5,460.3679 L 601.5,1.49998 L 1.5,1.49998 z "
       style="fill:white;fill-opacity:1" />
  </g>
  <g
     inkscape:groupmode="layer"
     id="layer2"
     inkscape:label="Meubles"
     sodipodi:insensitive="true">
    <path
       id="rect20786"
       style="fill:black;fill-opacity:1;fill-rule:evenodd;stroke:black;stroke-width:2.69147348;stroke-miterlimit:4;stroke-opacity:1"
       d="M 301.65824,1.5 L 301.65824,761.46875 C 300.77276,761.47647 299.88929,761.5 299.00199,761.5 C 146.06816,761.5 19.866207,646.6282 1.3457367,498.15625 L 1.3457367,1.5 L 301.65824,1.5 z M 300.0625,6.59375 C 213.94173,78.994767 270.22983,138.96776 205.5,185.96875 C 122.24057,246.42424 168.22842,266.25628 123.8125,328.25 C 94.548847,369.09487 60.84603,360.62452 34.375,400.4375 C 23.74259,416.4288 23.67326,452.89929 2.0625,474.5625 C 2.0507301,475.86823 2.0401929,477.16433 2.03125,478.46875 C 6.1017291,547.38666 33.279817,610.05579 75.875,658.8125 C 116.55552,628.37941 127.3264,588.45535 126.84375,554.21875 C 125.82357,481.85229 198.91677,483.15389 228.03125,442.03125 C 257.00657,401.10516 219.2914,368.22606 299.90625,317.75 C 378.80684,377.71141 334.9293,412.41612 359.8125,441.03125 C 410.68932,499.53847 455.8367,481.1138 470.5625,563.75 C 477.8855,604.84356 496.71608,635.66694 523.15625,660.9375 C 526.65352,657.87904 530.01211,654.76337 533.25,651.59375 C 565.72889,611.98296 588.2917,563.91078 597.21875,511.15625 C 597.9016,501.67231 598.11613,492.00048 597.8125,482.09375 C 578.5354,440.50948 563.36364,409.93625 549.71875,393.90625 C 516.98065,355.44541 472.96424,358.77189 468.96875,294.78125 C 464.70595,226.50843 401.82205,199.15808 376.84375,174.4375 C 340.07645,138.0495 382.47626,82.092597 300.0625,6.59375 z " />
  </g>
  <g
     inkscape:groupmode="layer"
     id="layer3"
     inkscape:label="Reflet final"
     style="display:inline"
     sodipodi:insensitive="true">
    <path
       style="fill:url(#radialGradient3236);fill-opacity:1"
       d="M 1.5,1.5 L 1.5,460.3679 C 1.5,626.67854 135.81454,761.5 301.49993,761.5 C 467.1854,761.5 601.5,626.67854 601.5,460.3679 L 601.5,1.5 L 1.5,1.5 z "
       id="path2346" />
  </g>
  <g
     inkscape:groupmode="layer"
     id="layer4"
     inkscape:label="Contour final"
     style="display:inline"
     sodipodi:insensitive="true">
    <path
       style="fill:none;fill-opacity:1;stroke:black;stroke-width:3;stroke-miterlimit:4;stroke-dasharray:none;stroke-opacity:1"
       d="M 1.5,1.5 L 1.5,460.36794 C 1.5,626.67854 135.81454,761.5 301.49993,761.5 C 467.1854,761.5 601.5,626.67854 601.5,460.36794 L 601.5,1.5 L 1.5,1.5 z "
       id="path3239" />
  </g>
</svg>

<svg xmlns="http://www.w3.org/2000/svg" xmlns:xlink="http://www.w3.org/1999/xlink" height="763" width="603" version="1.0"><defs><radialGradient xlink:href="#a" id="b" gradientUnits="userSpaceOnUse" gradientTransform="matrix(1.21503 0 0 1.26667 -839.192 -490.49)" cx="858.042" cy="579.933" fx="858.042" fy="579.933" r="300"/><linearGradient id="a"><stop style="stop-color:#fff;stop-opacity:.3137255" offset="0"/><stop offset=".19" style="stop-color:#fff;stop-opacity:.25098041"/><stop style="stop-color:#6b6b6b;stop-opacity:.1254902" offset=".6"/><stop style="stop-color:#000;stop-opacity:.1254902" offset="1"/></linearGradient></defs><g style="display:inline"><path d="M1.5 1.5v458.868c0 166.31 134.315 301.132 300 301.132s300-134.822 300-301.132V1.5H1.5z" style="fill:#fff;fill-opacity:1"/></g><path style="fill:#000;fill-opacity:1;fill-rule:evenodd;stroke:#000;stroke-width:2.69147348;stroke-miterlimit:4;stroke-opacity:1" d="M301.658 1.5v759.969c-.885.007-1.769.031-2.656.031-152.934 0-279.136-114.872-297.656-263.344V1.5h300.312zm-1.596 5.094c-86.12 72.4-29.832 132.374-94.562 179.375-83.26 60.455-37.272 80.287-81.688 142.281-29.263 40.845-62.966 32.375-89.437 72.188-10.632 15.99-10.702 52.461-32.313 74.125-.011 1.305-.022 2.601-.03 3.906 4.07 68.918 31.248 131.587 73.843 180.344 40.68-30.434 51.451-70.358 50.969-104.594-1.02-72.367 72.073-71.065 101.187-112.188 28.976-40.926-8.74-73.805 71.875-124.281 78.9 59.961 35.023 94.666 59.906 123.281 50.877 58.507 96.025 40.083 110.75 122.719 7.323 41.094 26.154 71.917 52.594 97.188a244.682 244.682 0 0 0 10.094-9.344c32.479-39.611 55.042-87.683 63.969-140.438.683-9.484.897-19.156.593-29.062-19.277-41.585-34.448-72.158-48.093-88.188-32.738-38.46-76.755-35.134-80.75-99.125-4.263-68.273-67.147-95.623-92.125-120.344-36.768-36.388 5.632-92.344-76.781-167.843z"/><g style="display:inline"><path style="fill:url(#b);fill-opacity:1" d="M1.5 1.5v458.868c0 166.31 134.315 301.132 300 301.132s300-134.821 300-301.132V1.5H1.5z"/></g><g style="display:inline"><path style="fill:none;fill-opacity:1;stroke:#000;stroke-width:3;stroke-miterlimit:4;stroke-dasharray:none;stroke-opacity:1" d="M1.5 1.5v458.868c0 166.31 134.315 301.132 300 301.132s300-134.821 300-301.132V1.5H1.5z"/></g></svg>
